Papirus/32x32/apps/winefile.svg

<?xml version="1.0" encoding="UTF-8" standalone="no"?>
<svg xmlns="http://www.w3.org/2000/svg" height="32" width="32" version="1">
 <rect style="fill:#5895dc" rx="1.286" ry="1.275" height="17" width="24" y="1" x="4"/>
 <rect style="fill:#89e058" rx="1.286" ry="1.275" height="17" width="24" y="4" x="4"/>
 <rect style="fill:#ffcd54" rx="1.286" ry="1.275" height="17" width="24" y="7" x="4"/>
 <rect opacity=".2" rx="1.5" ry="1.5" height="20" width="28" y="11" x="2"/>
 <rect rx="1.5" ry="1.5" height="20" width="28" y="10" x="2" fill="#848484"/>
 <rect opacity=".2" rx="1" ry="1" height="3" width="10" y="19" x="11"/>
 <rect rx="1" ry="1" height="3" width="10" y="18" x="11" fill="#ececec"/>
 <path style="opacity:.1;fill:#ffffff" d="m5.2851562 1c-0.7122857 0-1.2851562 0.5690406-1.2851562 1.2753906v1c0-0.70635 0.5728705-1.2753906 1.2851562-1.2753906h21.4296878c0.712285 0 1.285156 0.5690406 1.285156 1.2753906v-1c0-0.70635-0.572871-1.2753906-1.285156-1.2753906h-21.4296878z"/>
 <path style="opacity:.1;fill:#ffffff" d="m5.2851562 4c-0.7122857 0-1.2851562 0.5690406-1.2851562 1.2753906v1c0-0.70635 0.5728705-1.2753906 1.2851562-1.2753906h21.4296878c0.712285 0 1.285156 0.5690406 1.285156 1.2753906v-1c0-0.70635-0.572871-1.2753906-1.285156-1.2753906h-21.4296878z"/>
 <path style="opacity:.1;fill:#ffffff" d="m5.2851562 7c-0.7122857 0-1.2851562 0.5690406-1.2851562 1.2753906v1c0-0.70635 0.5728705-1.2753906 1.2851562-1.2753906h21.4296878c0.712285 0 1.285156 0.5690406 1.285156 1.2753906v-1c0-0.70635-0.572871-1.2753906-1.285156-1.2753906h-21.4296878z"/>
 <path style="opacity:.1" d="m5.2851562 2.9996094c-0.7122857 0-1.2851562 0.5690406-1.2851562 1.2753906v1c0-0.70635 0.5728705-1.2753906 1.2851562-1.2753906h21.4296878c0.712285 0 1.285156 0.5690406 1.285156 1.2753906v-1c0-0.70635-0.572871-1.2753906-1.285156-1.2753906h-21.4296878z"/>
 <path style="opacity:.1" d="m5.2851562 5.9996094c-0.7122857 0-1.2851562 0.5690406-1.2851562 1.2753906v1c0-0.70635 0.5728705-1.2753906 1.2851562-1.2753906h21.4296878c0.712285 0 1.285156 0.5690406 1.285156 1.2753906v-1c0-0.70635-0.572871-1.2753906-1.285156-1.2753906h-21.4296878z"/>
 <circle cy="23" cx="24" r="8" style="fill:#48aeff"/>
 <path style="opacity:.2" d="m31.979 23.424a8 8 0 0 1 -7.979 7.576 8 8 0 0 1 -7.979 -7.424 8 8 0 0 0 -0.021 0.424 8 8 0 0 0 8 8 8 8 0 0 0 8 -8 8 8 0 0 0 -0.02148 -0.57617z"/>
 <path style="fill:#ffffff" d="m20.214381 19.00009h2.571419c0.1185 0 0.2142 0.09558 0.2142 0.21429v2.57142c0 0.1185-0.0957 0.2142-0.2142 0.2142h-2.571509c-0.118711 0-0.214291-0.0957-0.214291-0.2142v-2.57151c0-0.11871 0.09558-0.21429 0.214291-0.21429z"/>
 <path style="fill:#ffffff" d="m25.214191 19h2.571318c0.118795 0 0.214491 0.09558 0.214491 0.214297v2.571497c0 0.118503-0.0957 0.214206-0.214191 0.214206h-2.571317c-0.118796 0-0.214492-0.0957-0.214492-0.214206v-2.571497c0-0.118717 0.09557-0.214294 0.214279-0.214294z"/>
 <path style="fill:#ffffff" d="m20.214381 24.00009h2.571419c0.1185 0 0.2142 0.09558 0.2142 0.21429v2.57142c0 0.1185-0.0957 0.2142-0.2142 0.2142h-2.571509c-0.118711 0-0.214291-0.0957-0.214291-0.2142v-2.57151c0-0.11871 0.09558-0.21429 0.214291-0.21429z"/>
 <path style="fill:#ffffff" d="m25.214191 24h2.571318c0.118795 0 0.214491 0.09558 0.214491 0.214296v2.571498c0 0.118503-0.0957 0.214206-0.214191 0.214206h-2.571317c-0.118796 0-0.214492-0.0957-0.214492-0.214206v-2.571498c0-0.118716 0.09557-0.214293 0.214279-0.214293z"/>
</svg>

<svg xmlns="http://www.w3.org/2000/svg" width="32" height="32" version="1">
 <rect style="fill:#5895dc" width="24" height="17" x="4" y="1" rx="1.275" ry="1.275"/>
 <rect style="opacity:0.1" width="24" height="17" x="4" y="3" rx="1.275" ry="1.275"/>
 <rect style="fill:#89e058" width="24" height="17" x="4" y="4" rx="1.275" ry="1.275"/>
 <rect style="opacity:0.1" width="24" height="17" x="4" y="6" rx="1.275" ry="1.275"/>
 <rect style="fill:#ffcd54" width="24" height="17" x="4" y="7" rx="1.275" ry="1.275"/>
 <rect opacity=".2" width="28" height="20" x="2" y="11" rx="1.5" ry="1.5"/>
 <rect fill="#8e8e8e" width="28" height="20" x="2" y="10" rx="1.5" ry="1.5"/>
 <rect opacity=".2" width="10" height="3" x="11" y="19" rx="1" ry="1"/>
 <rect fill="#ececec" width="10" height="3" x="11" y="18" rx="1" ry="1"/>
 <path style="fill:#ffffff;opacity:0.1" d="M 5.2754 1 C 4.569 1 4 1.569 4 2.2754 L 4 3.2754 C 4 2.569 4.569 2 5.2754 2 L 26.725 2 C 27.431 2 28 2.569 28 3.2754 L 28 2.2754 C 28 1.569 27.431 1 26.725 1 L 5.2754 1 z"/>
 <path style="fill:#ffffff;opacity:0.1" d="M 5.2754,3.9996 C 4.569,3.9996 4,4.5686 4,5.275 V 6.275 C 4,5.5686 4.569,4.9996 5.2754,4.9996 H 26.725 C 27.431,4.9996 28,5.5686 28,6.275 V 5.275 C 28,4.5686 27.431,3.9996 26.725,3.9996 Z"/>
 <path style="fill:#ffffff;opacity:0.1" d="M 5.2754,6.9996 C 4.569,6.9996 4,7.5686 4,8.275 V 9.275 C 4,8.5686 4.569,7.9996 5.2754,7.9996 H 26.725 C 27.431,7.9996 28,8.5686 28,9.275 V 8.275 C 28,7.5686 27.431,6.9996 26.725,6.9996 Z"/>
 <g>
  <circle style="opacity:0.2" cx="24" cy="24" r="8"/>
  <circle style="fill:#48aeff" cx="24" cy="23" r="8"/>
  <rect style="fill:#ffffff" width="3" height="3" x="20" y="19" rx=".25" ry=".25"/>
  <rect style="fill:#ffffff" width="3" height="3" x="25" y="19" rx=".25" ry=".25"/>
  <rect style="fill:#ffffff" width="3" height="3" x="25" y="24" rx=".25" ry=".25"/>
  <rect style="fill:#ffffff" width="3" height="3" x="20" y="24" rx=".25" ry=".25"/>
 </g>
</svg>
